X:1
T:Now the Silence
T:Now the Silence
T:Carl Flentge Schalk, 1969
T:Jaroslav Jan Vajda, 1968
T:© 1969, Hope Publishing Company, Carol Stream IL 6018 Courtesy of the Cyber Hymnal™
T:© 1969, Hope Publishing Company, Carol Stream IL 6018 Courtesy of the Cyber Hymnal™
C:Carl Flentge Schalk, 1969
Z:© 1969, Hope Publishing Company, Carol Stream IL 6018
Z:Courtesy of the Cyber Hymnal™
%%score ( 1 2 ) ( 3 4 )
L:1/8
Q:1/4=105
M:6/8
K:F
V:1 treble 
V:2 treble 
V:3 bass 
V:4 bass 
V:1
 C2 C F2 F | F2 F [B,B]3 | G2 G A2 A | G3- G2 F | [EG]3 [CG]3 | C2 C F2 F | F2 F [B,B]3 | %7
w: Now the si- lence,|now the peace,|Now the emp- ty|hands * up-|lift- ed;|Now the kneel- ing,|now the plea,|
 G2 G A2 A | G3- G2 F | [DG]3 [_EG]3 | F2 F B2 B | B2 B [_E_e]3 | c2 c d2 d | [Fc-]3 c2 B | %14
w: Now the Fa- ther’s|arms * in|wel- come;|Now the hear- ing,|now the power,|Now the ves- sel|brimmed * for|
 [Fc]3 [_Ec]3 | F2 F B2 B | B2 B [_E_e]3 | c2 c d2 d | [Fc-]3 c2 B | [Ec]3 [Cc]3 | C2 C F2 F | %21
w: pour- ing;|Now the bo- dy,|now the blood,|Now the joy- ful|cel- * e-|bra- tion;|Now the wed- ding,|
 F2 F [B,B]3 | G2 G c2 A | G3- G2 F | [EG]3 [DG]3 | c2 A G2 F | G2 A G2 A | c2 A G2 F | %28
w: now the songs,|Now the heart for-|giv- * en,|leap- ing;|Now the Spir- it’s|vis- i- ta- tion,|Now the Son’s e-|
 G2 A [FG]3 | c2 A G2 F | [B,G]3 [A,F]3 | G6 | G6 | !fermata![CG]6 |] %34
w: piph- a- ny;|Now the Fa- ther’s|bless- ing,|Now,|now,|now.|
V:2
 B,3 A,3 | A,3 x3 | C6 | D6 | x6 | B,3 A,3 | A,3 x3 | C6 | D6 | x6 | C3 F3 | D3 x3 | F3 F3 | %13
 x3 D3 | x6 | C3 F3 | D3 x3 | F3 F3 | x3 D3 | x6 | B,3 A,3 | A,3 x3 | C3 C3 | D6 | x6 | F3 D3 | %26
 E3 F3 | F3 D3 | E3 x3 | F3 D3 | x6 | (C3 B,3) | (C3 B,3) | x6 |] %34
V:3
 D,3 C,3 | D,3- [G,,D,]3 | E,6 | [B,,G,]3 [D,A,]3 | C3 E,3 | D,3 C,3 | D,3- [G,,D,]3 | E,6 | %8
 ([B,,G,]3 [D,A,]3) | B,6 | [F,A,]3 [D,B,-]3 | [G,B,]3 [C,C]3 | [F,A,]3 [B,,B,]3 | [F,A,]3 G,3 | %14
 [F,A,]3 [C,G,]3 | [F,A,]3 [D,B,-]3 | [G,B,]3 [C,C]3 | [F,A,]3 [B,,B,]3 | [F,A,]3 G,3 | G,3 E,3 | %20
 D,3 C,3 | D,6 | E,6 | ([B,,G,]3 [D,A,]3) | C3 B,3 | [C,A,]3 [G,B,]3 | [C,C]3 [D,B,]3 | %27
 [C,A,]3 [G,B,]3 | [C,C]3 [D,B,]3 | [C,A,]3 [B,,B,]3 | [D,F,]6 | ([C,E,]3 [G,,D,]3) | %32
 ([C,E,]3 [D,F,]3) | !fermata![C,E,]6 |] %34
V:4
 F,,6 | x6 | C,3 A,,3 | x6 | C,6 | F,,6 | x6 | C,3 A,,3 | x6 | G,3 _E,3 | x6 | x6 | x6 | x6 | x6 | %15
 x6 | x6 | x6 | x6 | C,6 | F,,6 | D,,3 G,,3 | C,3 A,,3 | x6 | C,6 | x6 | x6 | x6 | x6 | x6 | x6 | %31
 x6 | x6 | x6 |] %34

